Sources/FrostedUI/Resources/Icons.xcassets/illuminatiFilled24.imageset/illuminati-filled-24.svg

<svg width="24" height="24" viewBox="0 0 24 24" fill="none" xmlns="http://www.w3.org/2000/svg" data-fui-icon="true">
  <path
    d="M10.2756 2.40039C11.049 1.08653 12.9495 1.08658 13.7229 2.40039L23.5374 19.085C24.3216 20.4182 23.3605 22.0996 21.8137 22.0996H2.18481C0.638107 22.0995 -0.323013 20.4182 0.461182 19.085L10.2756 2.40039ZM12.1995 8.00488C14.1776 8.10878 15.7493 9.74599 15.7493 11.75C15.7493 13.8211 14.0703 15.5 11.9993 15.5C9.92834 15.4999 8.24928 13.821 8.24927 11.75C8.24927 9.74618 9.8212 8.10906 11.7991 8.00488C9.56894 8.0619 7.83098 9.06095 6.59692 10.1484C5.48951 11.1244 4.75929 12.193 4.39868 12.7891L4.26587 13.0146C4.05574 13.3854 4.05818 13.8377 4.27759 14.207C4.83574 15.1457 7.38903 18.9998 11.9993 19C16.6093 18.9999 19.1616 15.1459 19.72 14.207C19.9397 13.8375 19.9421 13.3856 19.7317 13.0146C19.4402 12.501 18.6675 11.2641 17.4016 10.1484C16.1675 9.06096 14.4296 8.06181 12.1995 8.00488ZM11.9993 9.5C10.7568 9.50015 9.74927 10.5075 9.74927 11.75C9.74928 12.9925 10.7568 13.9999 11.9993 14C13.2419 14 14.2493 12.9926 14.2493 11.75C14.2493 10.5074 13.2419 9.5 11.9993 9.5Z"
    fill="currentColor"
  />
</svg>

<svg xmlns="http://www.w3.org/2000/svg" width="24" height="24" fill="none" data-fui-icon="true" viewBox="0 0 24 24"><path fill="currentColor" d="M10.276 2.4c.773-1.313 2.674-1.313 3.447 0l9.814 16.685c.785 1.333-.177 3.015-1.723 3.015H2.184c-1.546 0-2.507-1.682-1.723-3.015zM12.2 8.005a3.75 3.75 0 1 1-.4 0c-2.231.057-3.969 1.056-5.203 2.143a11.6 11.6 0 0 0-2.198 2.641l-.133.226c-.21.37-.208.823.012 1.192.558.939 3.111 4.793 7.721 4.793s7.163-3.854 7.721-4.793c.22-.37.222-.821.012-1.192a11.6 11.6 0 0 0-2.33-2.867c-1.235-1.087-2.972-2.086-5.203-2.143M12 9.5a2.25 2.25 0 1 0 0 4.5 2.25 2.25 0 0 0 0-4.5"/></svg>
